X: 27990
T: Moving Bog, The
R: polka
M: 2/4
K: Gmajor
B2 G2|de/f/ gB|A2 AB|d2 BA|
B2 G2|de/f/ gB|AA BA|GF G2:|
fa d2|e/f/e/d/ BA|B>A GE|B>A GE|
fa d2|e/f/e/d/ BA|B>A GB/d/|g2 g2:|

